!!!SOCIAL_FUNCTION:	songs of the hand-game
!!!PDT:	1936
!!!OTL: No_41_I_Shall_Paint_My_Face.krn
!!!REG: Oklahoma and Montana
!!!LANG: Tone
!!!LING_GROUP: Algonquin
**kern	**kern
*staff2	*staff1
=1-	=1-
*clefF4	*clefF4
*k[f#c#g#]	*k[f#c#g#]
*M3/4	*M3/4
4GG#/	8d\L
.	8d\J
4GG#/	8c#\L
.	8A\J
4GG#/	8A\L
.	8B\J
=2	=2
4GG#/	4A\
4GG#/	4A\
4GG#/	8A\
.	8r
=3	=3
2.r	8d\L
.	8d\J
.	8c#\L
.	8A\J
.	8A\L
.	8B\J
=4	=4
2.r	4A\
.	4A\
.	8A\
.	8r
=5	=5
*M2/4	*M2/4
2r	8.c#\L
.	16A\Jk
.	(8A\L
.	8F#\J)
=6	=6
2r	4A\
.	(8c#\L
.	8A\J)
=7	=7
*M3/4	*M3/4
2.r	4A\
.	4F#\
.	8E\L
.	8F#\J
=8	=8
2.r	4E\
.	4E\
.	8E\
.	8r
=9	=9
*M2/4	*M2/4
2r	8.c#\L
.	16A\Jk
.	(8A\L
.	8F#\J)
=10	=10
2r	4A\
.	(8c#\L
.	8A\J)
=11	=11
*M3/4	*M3/4
2.r	4A\
.	4F#\
.	8E\L
.	8F#\J
=12	=12
2.r	4E\
.	4E\
.	8E\
.	8r
=13!|:	=13!|:
*M2/4	*M2/4
2r	4E\
.	8.C#/L
.	16E/Jk
=14	=14
2r	4E\
.	8E\
.	8r
=15	=15
2r	4E\
.	8.C#/L
.	16E/Jk
=16	=16
*M3/4	*M3/4
2.r	4E\
.	8E\
.	8r
.	4A\
=17	=17
*M2/4	*M2/4
2r	4A\
.	4A\
=18	=18
2r	8A\
.	8r
.	8E\L
.	8E\J
=19	=19
2r	(4F#\
.	8E\L)
.	8F#\J
=20	=20
2r	4E\
.	4E\
=21	=21
2r	8E\
.	8r
.	4A\
=22	=22
2r	4A\
.	4A\
=23	=23
2r	8A\
.	8r
.	8E\L
.	8E\J
=24	=24
2r	(4F#\
.	8E\L)
.	8F#\J
=25	=25
*M3/4	*M3/4
2.r	4E\
.	4E\
.	8E\
.	8r
==:|!	==:|!
*-	*-
